X: 67
T:Padraic O'Keeffe's
M:6/8
L:1/8
Q:90
C:Traditional
R:Jig
K:D
|:"D"A-BA D-FA|B-AF D-FA|d-cd "G"ede|"D"f-ef def|!
"G"gdB g-ab|"D"a-fd B-cd|
[1"A"e-fe e2 d|c-BA B-cd:|[2"A"A-Bc e-fe|!
"D"d2 d d2 (2c-d||"A"e2 A e-fg|
"D"{fg}f2 d f-ga|
"G"g2 e "D"f2 d|"A"edB A-Bc|!
e2 A e-fg|"D"{fg}f2 d f-ga|"Em"g-fe d-cB|[1"
A"A2 A A2 (2cd:|[2"A" A3 {Bc} AFD:|]
